X:1
T:Smutny Błazen
T:Smutny Błazen
T:Miłosz Magin
C:Miłosz Magin
%%score { 1 | ( 2 3 ) }
L:1/8
M:3/4
K:C
V:1 treble nm="Piano" snm="Pno."
V:2 treble 
V:3 treble 
V:1
!p!"_legato" z6 | z6 | !1!d!3!f !5!a2 !4!g!3!f | !2!ee !5!a3 !4!g | !3!f!2!e !1!d2 ef | e2 A4 | %6
 df a2 gf | ee d'3 _b | af d2 eg | f2 d4 |"_poco cresc." e2 a3 g | fe d2 f2 | e2 c'3 _b | a6 | %14
 e2 a3 g | fe d2 f2 | e2 e'2!>(! d'_b | a6!>)! |!p! !1!d!3!f !5!a2 !4!g!3!f | !2!ee !5!a3 !4!g | %20
 !3!f!2!e !1!d2 ef | e2 A4 | df a2 gf | ee d'3 _b | af d2 eg | f2 d4 | %26
"_piu lento e dim." bg d2 eg | f2 d4 |!pp! f2 d4- | d6- | d6- | d6- | !fermata!d6 |] %33
V:2
 D4 D2 | D4 D2 | D4 D2 | D4 D2 | D4 D2 | D6 | [DF]4 [DA]2 | D4 D2 | D6 | D4 D2 | D4 D2 | D4 D2 | %12
 D4 D2 | D4 D2 | D4 D2 | D4 D2 | D4 D2 | D4 D2 | D4 D2 | D4 D2 | D4 D2 | D6 | [DF]4 [DA]2 | D4 D2 | %24
 D6 | D4 D2 | [D-G]6 | [D^G]6 | [DA]6- | [DA]6 | [DA]6- | [DA]6- | !fermata![DA]6 |] %33
V:3
 A6- | A6 | A6 | _B6 | =B6 | ^G4 =G2 | x6 | B6 | c4 ^G2 | c6 | G6 | A6 | B6 | c6 | _A6 | _B6 | %16
 =B6 | ^c6 | A6 | _B6 | =B6 | ^G4 =G2 | x6 | B6 | c4 ^G2 | A6 | x6 | x6 | x6 | x6 | x6 | x6 | x6 |] %33

